SVG_Azure_All/Confidential Ledger.svg

<?xml version="1.0" encoding="UTF-8" standalone="no"?>
<!-- Generated by Microsoft Visio, SVG Export Confidential Ledger.svg Page-1 -->

<svg
   xmlns:dc="http://purl.org/dc/elements/1.1/"
   xmlns:cc="http://creativecommons.org/ns#"
   xmlns:rdf="http://www.w3.org/1999/02/22-rdf-syntax-ns#"
   xmlns:svg="http://www.w3.org/2000/svg"
   xmlns="http://www.w3.org/2000/svg"
   xmlns:xlink="http://www.w3.org/1999/xlink"
   xmlns:sodipodi="http://sodipodi.sourceforge.net/DTD/sodipodi-0.dtd"
   xmlns:inkscape="http://www.inkscape.org/namespaces/inkscape"
   width="0.78735679in"
   height="0.7874679in"
   viewBox="0 0 56.689597 56.697999"
   xml:space="preserve"
   class="st5"
   version="1.1"
   id="svg50"
   sodipodi:docname="Confidential Ledger.svg"
   style="font-size:12px;overflow:visible;color-interpolation-filters:sRGB;fill:none;fill-rule:evenodd;stroke-linecap:square;stroke-miterlimit:3"
   inkscape:version="0.92.5 (2060ec1f9f, 2020-04-08)"><metadata
   id="metadata54"><rdf:RDF><cc:Work
       rdf:about=""><dc:format>image/svg+xml</dc:format><dc:type
         rdf:resource="http://purl.org/dc/dcmitype/StillImage" /></cc:Work></rdf:RDF></metadata><sodipodi:namedview
   pagecolor="#ffffff"
   bordercolor="#666666"
   borderopacity="1"
   objecttolerance="10"
   gridtolerance="10"
   guidetolerance="10"
   inkscape:pageopacity="0"
   inkscape:pageshadow="2"
   inkscape:window-width="640"
   inkscape:window-height="480"
   id="namedview52"
   showgrid="false"
   inkscape:zoom="1.4193119"
   inkscape:cx="37.795128"
   inkscape:cy="37.786193"
   inkscape:window-x="0"
   inkscape:window-y="0"
   inkscape:window-maximized="0"
   inkscape:current-layer="svg50" />
	<style
   type="text/css"
   id="style2">
	<![CDATA[
		.st1 {fill:#b796f9;stroke:none;stroke-linecap:butt;stroke-width:34}
		.st2 {fill:#a67af4;stroke:none;stroke-linecap:butt;stroke-width:34}
		.st3 {fill:url(#grad0-10);stroke:none;stroke-linecap:butt;stroke-width:34}
		.st4 {fill:#773adc;stroke:none;stroke-linecap:butt;stroke-width:34}
		.st5 {fill:none;fill-rule:evenodd;font-size:12px;overflow:visible;stroke-linecap:square;stroke-miterlimit:3}
	]]>
	</style>

	<defs
   id="Patterns_And_Gradients">
		<linearGradient
   id="grad0-10"
   x1="0"
   y1="0"
   x2="1"
   y2="0">
			<stop
   offset="0"
   stop-color="#773adc"
   stop-opacity="1"
   id="stop4" />
			<stop
   offset="1"
   stop-color="#552f99"
   stop-opacity="1"
   id="stop6" />
		</linearGradient>
	<linearGradient
   inkscape:collect="always"
   xlink:href="#grad0-10"
   id="linearGradient4564"
   x1="-0.018048637"
   y1="72.134736"
   x2="5.0992356"
   y2="72.134736"
   gradientTransform="scale(0.61995505,1.6130202)"
   gradientUnits="userSpaceOnUse" /><linearGradient
   inkscape:collect="always"
   xlink:href="#grad0-10"
   id="linearGradient4566"
   x1="-0.018043445"
   y1="72.155484"
   x2="5.0974233"
   y2="72.155484"
   gradientTransform="scale(0.62013344,1.6125562)"
   gradientUnits="userSpaceOnUse" /><linearGradient
   inkscape:collect="always"
   xlink:href="#grad0-10"
   id="linearGradient4568"
   x1="-0.018048771"
   y1="72.134201"
   x2="5.0991974"
   y2="72.134201"
   gradientTransform="scale(0.61995045,1.6130321)"
   gradientUnits="userSpaceOnUse" /></defs>
	<g
   id="g48"
   transform="translate(-34.000441,-33.9963)">
		<title
   id="title10">Page-1</title>
		<g
   id="group6245-1"
   transform="translate(34,-34.0157)">
			<title
   id="title12">Confidential Ledger</title>
			<g
   id="group6246-2">
				<title
   id="title14">Sheet.6246</title>
				<g
   id="shape6247-3"
   transform="translate(0,-14.148)">
					<title
   id="title16">Sheet.6247</title>
					<path
   d="M 40.47,89.27 28.35,96.39 16.22,89.27 28.35,82.16 Z m -21.1,25.49 -2.3,-1.36 -4.93,-2.89 -12.14,7.08 12.13,7.12 12.12,-7.12 z m 25.2,-4.26 -4.95,2.9 -2.3,1.36 -4.88,2.83 9.8,5.76 2.33,1.36 1.13,-0.66 10.99,-6.46 z"
   class="st1"
   id="path18"
   inkscape:connector-curvature="0"
   style="fill:#b796f9;stroke:none;stroke-width:34;stroke-linecap:butt" />
				</g>
				<g
   id="shape6248-5">
					<title
   id="title21">Sheet.6248</title>
					<path
   d="M 28.35,82.25 V 96.36 L 23.43,93.5 21.13,92.14 16.22,89.28 V 75.13 l 10.99,6.45 z M 0,103.46 v 14.14 l 12.14,7.11 v -14.13 z m 42.25,5.75 v -0.04 l -9.8,-5.73 v 14.18 l 12.13,7.09 v -14.14 z"
   class="st2"
   id="path23"
   inkscape:connector-curvature="0"
   style="fill:#a67af4;stroke:none;stroke-width:34;stroke-linecap:butt" />
				</g>
				<g
   id="shape6249-7"
   transform="translate(36.4441,-6.08819)">
					<title
   id="title26">Sheet.6249</title>
					<path
   d="m 1.61,116.59 a 3.40472,3.40472 0 0 1 1.55,2.95 0.897638,0.897638 0 0 1 -0.781102,0.90394 L 2.3,120.44 l 0.65,2.87 0.19,0.88 c 0.07,0.34 -0.11,0.52 -0.37,0.36 L 2.33,124.31 1.9,124.05 c -0.51,-0.29 -1.02,-0.58 -1.53,-0.87 a 0.859843,0.859843 0 0 1 -0.374803,-0.8189 C 0.28,121.49 0.55,120.6 0.83,119.73 c 0.02,-0.09 0.02,-0.14 -0.06,-0.25 a 3.11811,3.11811 0 0 1 -0.75,-2.2 c 0.07,-0.69 0.43,-1 1.02,-0.91 a 1.71654,1.71654 0 0 1 0.57,0.22 z"
   class="st3"
   id="path28"
   inkscape:connector-curvature="0"
   style="fill:url(#linearGradient4564);stroke:none;stroke-width:34;stroke-linecap:butt" />
				</g>
				<g
   id="shape6250-11"
   transform="translate(12.1386)">
					<title
   id="title31">Sheet.6250</title>
					<path
   d="m 28.35,75.13 v 14.14 l -4.92,2.87 -2.3,1.35 -4.92,2.87 V 82.21 Z M 2.33,109.17 v 0.04 L 0,110.56 v 14.15 l 12.13,-7.09 v -14.17 z m 30.11,1.38 v 14.16 l 12.11,-7.11 v -14.14 z m -20.33,-1.31 v 2.67 h 8.19 v -2.67 z M 9,92.14 l -4.07,7.11 2.3,1.36 4.06,-7.12 z m 14.42,0 -2.3,1.35 4.06,7.12 2.3,-1.36 z"
   class="st4"
   id="path33"
   inkscape:connector-curvature="0"
   style="fill:#773adc;stroke:none;stroke-width:34;stroke-linecap:butt" />
				</g>
				<g
   id="shape6251-13"
   transform="translate(20.2236,-34.4063)">
					<title
   id="title36">Sheet.6251</title>
					<path
   d="m 1.61,116.6 a 3.40157,3.40157 0 0 1 1.55,2.94 0.897638,0.897638 0 0 1 -0.777953,0.90079 L 2.3,120.44 l 0.65,2.87 0.19,0.88 c 0.07,0.3 -0.11,0.52 -0.37,0.36 L 2.33,124.31 1.9,124.05 0.37,123.17 a 0.859843,0.859843 0 0 1 -0.374803,-0.8189 C 0.28,121.48 0.55,120.6 0.83,119.72 c 0.02,-0.09 0.02,-0.14 -0.06,-0.25 a 3.11811,3.11811 0 0 1 -0.75,-2.2 c 0.07,-0.68 0.43,-0.99 1.02,-0.9 a 1.69764,1.69764 0 0 1 0.57,0.23 z"
   class="st3"
   id="path38"
   inkscape:connector-curvature="0"
   style="fill:url(#linearGradient4566);stroke:none;stroke-width:34;stroke-linecap:butt" />
				</g>
				<g
   id="shape6252-16"
   transform="translate(4.00315,-6.08819)">
					<title
   id="title41">Sheet.6252</title>
					<path
   d="m 1.61,116.59 a 3.40787,3.40787 0 0 1 1.55,2.95 0.897638,0.897638 0 0 1 -0.777953,0.90394 L 2.3,120.44 l 0.65,2.87 0.19,0.88 c 0.08,0.34 -0.11,0.52 -0.37,0.36 L 2.33,124.31 1.9,124.05 c -0.51,-0.29 -1.02,-0.58 -1.53,-0.87 a 0.859843,0.859843 0 0 1 -0.374803,-0.8189 C 0.28,121.49 0.55,120.6 0.83,119.73 c 0.03,-0.09 0.02,-0.14 -0.06,-0.25 a 3.11811,3.11811 0 0 1 -0.75,-2.2 c 0.07,-0.69 0.43,-1 1.02,-0.91 a 1.77008,1.77008 0 0 1 0.57,0.22 z"
   class="st3"
   id="path43"
   inkscape:connector-curvature="0"
   style="fill:url(#linearGradient4568);stroke:none;stroke-width:34;stroke-linecap:butt" />
				</g>
			</g>
		</g>
	</g>
</svg>

<?xml version="1.0" encoding="UTF-8" standalone="no"?>
<!DOCTYPE svg PUBLIC "-//W3C//DTD SVG 1.1//EN" "http://www.w3.org/Graphics/SVG/1.1/DTD/svg11.dtd">
<!-- Generated by Microsoft Visio, SVG Export Confidential Ledger.svg Page-1 -->
<svg xmlns="http://www.w3.org/2000/svg" xmlns:xlink="http://www.w3.org/1999/xlink" xmlns:ev="http://www.w3.org/2001/xml-events"
		width="1.73185in" height="1.73206in" viewBox="0 0 124.693 124.709" xml:space="preserve" color-interpolation-filters="sRGB"
		class="st5">
	<style type="text/css">
	<![CDATA[
		.st1 {fill:#b796f9;stroke:none;stroke-linecap:butt;stroke-width:34}
		.st2 {fill:#a67af4;stroke:none;stroke-linecap:butt;stroke-width:34}
		.st3 {fill:url(#grad0-10);stroke:none;stroke-linecap:butt;stroke-width:34}
		.st4 {fill:#773adc;stroke:none;stroke-linecap:butt;stroke-width:34}
		.st5 {fill:none;fill-rule:evenodd;font-size:12px;overflow:visible;stroke-linecap:square;stroke-miterlimit:3}
	]]>
	</style>

	<defs id="Patterns_And_Gradients">
		<linearGradient id="grad0-10" x1="0" y1="0" x2="1" y2="0" gradientTransform="rotate(0 0.5 0.5)">
			<stop offset="0" stop-color="#773adc" stop-opacity="1"/>
			<stop offset="1" stop-color="#552f99" stop-opacity="1"/>
		</linearGradient>
	</defs>
	<g>
		<title>Page-1</title>
		<g id="group6077-1" transform="translate(34,-34.0157)">
			<title>Confidential Ledger</title>
			<g id="group6078-2">
				<title>Sheet.6078</title>
				<g id="shape6079-3" transform="translate(0,-14.148)">
					<title>Sheet.6079</title>
					<path d="M40.47 89.27 L28.35 96.39 L16.22 89.27 L28.35 82.16 L40.47 89.27 ZM19.37 114.76 L17.07 113.4 L12.14
								 110.51 L0 117.59 L12.13 124.71 L24.25 117.59 L19.37 114.76 ZM44.57 110.5 L39.62 113.4 L37.32 114.76
								 L32.44 117.59 L42.24 123.35 L44.57 124.71 L45.7 124.05 L56.69 117.59 L44.57 110.5 Z" class="st1"/>
				</g>
				<g id="shape6080-5">
					<title>Sheet.6080</title>
					<path d="M28.35 82.25 L28.35 96.36 L23.43 93.5 L21.13 92.14 L16.22 89.28 L16.22 75.13 L27.21 81.58 L28.35 82.25
								 ZM0 103.46 L0 117.6 L12.14 124.71 L12.14 110.58 L0 103.46 ZM42.25 109.21 L42.25 109.17 L32.45 103.44
								 L32.45 117.62 L44.58 124.71 L44.58 110.57 L42.25 109.21 Z" class="st2"/>
				</g>
				<g id="shape6081-7" transform="translate(36.4441,-6.08819)">
					<title>Sheet.6081</title>
					<path d="M1.61 116.59 A3.40472 3.40472 0 0 1 3.16 119.54 a0.897638 0.897638 0 0 1 -0.781102 0.903937 L2.3 120.44
								 L2.95 123.31 L3.14 124.19 C3.21 124.53 3.03 124.71 2.77 124.55 L2.33 124.31 L1.9 124.05 C1.39 123.76
								 0.88 123.47 0.37 123.18 a0.859843 0.859843 0 0 1 -0.374803 -0.818898 C0.28 121.49 0.55 120.6 0.83
								 119.73 C0.85 119.64 0.85 119.59 0.77 119.48 A3.11811 3.11811 0 0 1 0.02 117.28 C0.09 116.59 0.45
								 116.28 1.04 116.37 A1.71654 1.71654 0 0 1 1.61 116.59 Z" class="st3"/>
				</g>
				<g id="shape6082-11" transform="translate(12.1386,1.42109E-14)">
					<title>Sheet.6082</title>
					<path d="M28.35 75.13 L28.35 89.27 L23.43 92.14 L21.13 93.49 L16.21 96.36 L16.21 82.21 L28.35 75.13 ZM2.33 109.17
								 L2.33 109.21 L0 110.56 L0 124.71 L12.13 117.62 L12.13 103.45 L2.33 109.17 ZM32.44 110.55 L32.44
								 124.71 L44.55 117.6 L44.55 103.46 L32.44 110.55 ZM12.11 109.24 L12.11 111.91 L20.3 111.91 L20.3
								 109.24 L12.11 109.24 ZM9 92.14 L4.93 99.25 L7.23 100.61 L11.29 93.49 L9 92.14 ZM23.42 92.14 L21.12
								 93.49 L25.18 100.61 L27.48 99.25 L23.42 92.14 Z" class="st4"/>
				</g>
				<g id="shape6083-13" transform="translate(20.2236,-34.4063)">
					<title>Sheet.6083</title>
					<path d="M1.61 116.6 A3.40157 3.40157 0 0 1 3.16 119.54 a0.897638 0.897638 0 0 1 -0.777953 0.900787 L2.3 120.44
								 L2.95 123.31 L3.14 124.19 C3.21 124.49 3.03 124.71 2.77 124.55 L2.33 124.31 L1.9 124.05 L0.37 123.17
								 a0.859843 0.859843 0 0 1 -0.374803 -0.818898 C0.28 121.48 0.55 120.6 0.83 119.72 C0.85 119.63 0.85
								 119.58 0.77 119.47 A3.11811 3.11811 0 0 1 0.02 117.27 C0.09 116.59 0.45 116.28 1.04 116.37 A1.69764
								 1.69764 0 0 1 1.61 116.6 Z" class="st3"/>
				</g>
				<g id="shape6084-16" transform="translate(4.00315,-6.08819)">
					<title>Sheet.6084</title>
					<path d="M1.61 116.59 A3.40787 3.40787 0 0 1 3.16 119.54 a0.897638 0.897638 0 0 1 -0.777953 0.903937 L2.3 120.44
								 L2.95 123.31 L3.14 124.19 C3.22 124.53 3.03 124.71 2.77 124.55 L2.33 124.31 L1.9 124.05 C1.39 123.76
								 0.88 123.47 0.37 123.18 a0.859843 0.859843 0 0 1 -0.374803 -0.818898 C0.28 121.49 0.55 120.6 0.83
								 119.73 C0.86 119.64 0.85 119.59 0.77 119.48 A3.11811 3.11811 0 0 1 0.02 117.28 C0.09 116.59 0.45
								 116.28 1.04 116.37 A1.77008 1.77008 0 0 1 1.61 116.59 Z" class="st3"/>
				</g>
			</g>
		</g>
	</g>
</svg>
